X:17252
T:The Stool of Repentance
M:6/8
L:1/8
K:G
g2d B2d|gfe dcB|gee e2d|ege e2d |
g2d B2d|gfe dcB|c2d e2d|egB A2G:|
BGG dGG|BGG dcB|cAA eAA|cAA edc |
BGG dGG|BGG dcB|c2d e2d|egB A2G:|
